X: 1
T: Banish Misfortune
C: Cronin
B: Black Book, O'Neill's #776
M: 6/8
K: D
|:e | fed cAG | A2d =cAG | F2 D DED | F3 GFG \
| A3 =cAG | AGA =cde | fed cAG | Add d2:|
|: e f2 d dcd | f2g agf | e2 =c cAc | e2 f gfe \
| f2g agf | e2f gfe | fed =cAG | Add d2:|
|: e | f2 g e2 f| d2e =c2d| ABA GAG |F3 AFD \
| =c3 cAG | AGA =cde | fed cAG | Add d2:|
